X:080
T:Brave Lewie Roy
B:Kerr's Third Collection of Merry Melodies (c1875)
M:2/4
L:1/8
K:C
c2 A>G|G2 e>d|c2 A>G|GA c2|d2 de|g2 eg|a2 ge|de g2|
c2 A>G|G2 e>d|c2 A>G|GA c2|d2 de|g2 eg|a2 ge|d2 c2|]
<end>
<start>
